cached_logos/flowmill.svg

<svg xmlns="http://www.w3.org/2000/svg" width="636" height="660" viewBox="0 0 636 660">
  <defs>
    <linearGradient id="colorpositive-a" x1="99.273%" x2="0%" y1="0%" y2="100%">
      <stop offset="0%" stop-color="#0CC"/>
      <stop offset="49.924%" stop-color="#35F"/>
      <stop offset="100%" stop-color="#CE00FF"/>
    </linearGradient>
  </defs>
  <g fill="none" fill-rule="evenodd">
    <path fill="#000" d="M109.887834,597.189189 L102,597.189189 L102,558.810811 L127.44637,558.810811 L127.44637,566.054054 L109.887834,566.054054 L109.887834,574.108108 L126.635976,574.108108 L126.635976,581.351351 L109.887834,581.351351 L109.887834,597.189189 Z M180.632224,589.945946 L180.632224,597.189189 L155.726117,597.189189 L155.726117,558.810811 L163.613951,558.810811 L163.613951,589.945946 L180.632224,589.945946 Z M244.245147,578 C244.245147,589.513514 235.925103,598 224.309456,598 C212.693809,598 204.373765,589.513514 204.373765,578 C204.373765,566.486486 212.693809,558 224.309456,558 C235.925103,558 244.245147,566.486486 244.245147,578 Z M235.925103,578 C235.925103,570.432432 231.116765,565.513514 224.309456,565.513514 C217.502147,565.513514 212.693809,570.432432 212.693809,578 C212.693809,585.567568 217.502147,590.486486 224.309456,590.486486 C231.116765,590.486486 235.925103,585.567568 235.925103,578 Z M296.29645,570.054054 L288.516668,597.189189 L280.196623,597.189189 L268.418898,558.810811 L277.279205,558.810811 L284.410672,585.945946 L284.518724,585.945946 L292.190454,558.810811 L300.726603,558.810811 L308.398333,585.945946 L308.506385,585.945946 L315.637852,558.810811 L324.282054,558.810811 L312.504329,597.189189 L304.184284,597.189189 L296.404502,570.054054 L296.29645,570.054054 Z M356.397666,558.810811 L370.282415,576.702703 L384.221191,558.810811 L387.786924,558.810811 L387.786924,597.189189 L383.843007,597.189189 L383.843007,565.513514 L370.390468,582.594595 L370.174363,582.594595 L356.775849,565.513514 L356.775849,597.189189 L352.831932,597.189189 L352.831932,558.810811 L356.397666,558.810811 Z M425.305162,558.810811 L425.305162,597.189189 L421.361245,597.189189 L421.361245,558.810811 L425.305162,558.810811 Z M482.110776,593.459459 L482.110776,597.189189 L458.933509,597.189189 L458.933509,558.810811 L462.877426,558.810811 L462.877426,593.459459 L482.110776,593.459459 Z M534,593.459459 L534,597.189189 L510.822733,597.189189 L510.822733,558.810811 L514.76665,558.810811 L514.76665,593.459459 L534,593.459459 Z"/>
    <path fill="url(#colorpositive-a)" fill-rule="nonzero" d="M140.472222,289.539683 C134.688574,289.539683 130,284.849332 130,279.063492 C130,273.277652 134.688574,268.587302 140.472222,268.587302 C146.255871,268.587302 150.944444,273.277652 150.944444,279.063492 C150.944444,284.849332 146.255871,289.539683 140.472222,289.539683 Z M496.527778,289.539683 C490.744129,289.539683 486.055556,284.849332 486.055556,279.063492 C486.055556,273.277652 490.744129,268.587302 496.527778,268.587302 C502.311426,268.587302 507,273.277652 507,279.063492 C507,284.849332 502.311426,289.539683 496.527778,289.539683 Z M212.46875,307 C197.286672,307 184.979167,294.687831 184.979167,279.5 C184.979167,264.312169 197.286672,252 212.46875,252 C227.650828,252 239.958333,264.312169 239.958333,279.5 C239.958333,294.687831 227.650828,307 212.46875,307 Z M424.53125,307 C409.349172,307 397.041667,294.687831 397.041667,279.5 C397.041667,264.312169 409.349172,252 424.53125,252 C439.713328,252 452.020833,264.312169 452.020833,279.5 C452.020833,294.687831 439.713328,307 424.53125,307 Z M220.776771,130.289009 C217.884946,125.280222 219.609499,118.870653 224.628667,115.972835 C229.647835,113.075017 236.060961,114.786295 238.952786,119.795082 C241.84461,124.803868 240.120057,131.213438 235.100889,134.111256 C230.081721,137.009074 223.668595,135.297796 220.776771,130.289009 Z M398.804548,438.642165 C395.912724,433.633379 397.637277,427.223809 402.656445,424.325991 C407.675613,421.428173 414.088739,423.139451 416.980563,428.148238 C419.872388,433.157025 418.147835,439.566594 413.128667,442.464412 C408.109499,445.36223 401.696373,443.650952 398.804548,438.642165 Z M241.628355,201.38477 C234.037317,188.236705 238.564268,171.411586 251.739583,163.804813 C264.914899,156.198041 281.749356,160.690147 289.340395,173.838212 C296.931433,186.986276 292.404482,203.811396 279.229167,211.418168 C266.053851,219.024941 249.219394,214.532835 241.628355,201.38477 Z M347.659605,385.036282 C340.068567,371.888217 344.595518,355.063098 357.770833,347.456326 C370.946149,339.849553 387.780606,344.341659 395.371645,357.489724 C402.962683,370.637789 398.435732,387.462908 385.260417,395.069681 C372.085101,402.676453 355.250644,398.184347 347.659605,385.036282 Z M398.804548,120.232329 C401.696373,115.223542 408.109499,113.512264 413.128667,116.410082 C418.147835,119.3079 419.872388,125.717469 416.980563,130.726256 C414.088739,135.735043 407.675613,137.446321 402.656445,134.548503 C397.637277,131.650685 395.912724,125.241115 398.804548,120.232329 Z M220.776771,428.585485 C223.668595,423.576698 230.081721,421.86542 235.100889,424.763238 C240.120057,427.661056 241.84461,434.070626 238.952786,439.079412 C236.060961,444.088199 229.647835,445.799477 224.628667,442.901659 C219.609499,440.003841 217.884946,433.594272 220.776771,428.585485 Z M347.659605,173.838212 C355.250644,160.690147 372.085101,156.198041 385.260417,163.804813 C398.435732,171.411586 402.962683,188.236705 395.371645,201.38477 C387.780606,214.532835 370.946149,219.024941 357.770833,211.418168 C344.595518,203.811396 340.068567,186.986276 347.659605,173.838212 Z M241.628355,357.489724 C249.219394,344.341659 266.053851,339.849553 279.229167,347.456326 C292.404482,355.063098 296.931433,371.888217 289.340395,385.036282 C281.749356,398.184347 264.914899,402.676453 251.739583,395.069681 C238.564268,387.462908 234.037317,370.637789 241.628355,357.489724 Z M147,197 C137.611159,197 130,189.388841 130,180 C130,170.611159 137.611159,163 147,163 C156.388841,163 164,170.611159 164,180 C164,189.388841 156.388841,197 147,197 Z M490,197 C480.611159,197 473,189.388841 473,180 C473,170.611159 480.611159,163 490,163 C499.388841,163 507,170.611159 507,180 C507,189.388841 499.388841,197 490,197 Z M490,395 C480.611159,395 473,387.388841 473,378 C473,368.611159 480.611159,361 490,361 C499.388841,361 507,368.611159 507,378 C507,387.388841 499.388841,395 490,395 Z M147,395 C137.611159,395 130,387.388841 130,378 C130,368.611159 137.611159,361 147,361 C156.388841,361 164,368.611159 164,378 C164,387.388841 156.388841,395 147,395 Z M319,495 C309.611159,495 302,487.388841 302,478 C302,468.611159 309.611159,461 319,461 C328.388841,461 336,468.611159 336,478 C336,487.388841 328.388841,495 319,495 Z M319,97 C309.611159,97 302,89.3888407 302,80 C302,70.6111593 309.611159,63 319,63 C328.388841,63 336,70.6111593 336,80 C336,89.3888407 328.388841,97 319,97 Z M318.5,323 C293.923329,323 274,303.076671 274,278.5 C274,253.923329 293.923329,234 318.5,234 C343.076671,234 363,253.923329 363,278.5 C363,303.076671 343.076671,323 318.5,323 Z"/>
  </g>
</svg>

<svg xmlns="http://www.w3.org/2000/svg" role="img" viewBox="91.31 52.31 452.88 555.88"><title>Flowmill logo</title><defs><linearGradient id="a" x1="99.273%" x2="0%" y1="0%" y2="100%"><stop offset="0%" stop-color="#0CC"/><stop offset="49.924%" stop-color="#35F"/><stop offset="100%" stop-color="#CE00FF"/></linearGradient></defs><g fill="none" fill-rule="evenodd"><path fill="#000" d="M109.88783 597.18919H102V558.8108h25.44637v7.24324h-17.55854v8.05406h16.74815v7.24324h-16.74815v15.83784zm70.7444-7.24324v7.24324h-24.90611V558.8108h7.88783v31.13514h17.01827zM244.24514 578c0 11.51351-8.32005 20-19.9357 20-11.61564 0-19.93569-8.48649-19.93569-20s8.32005-20 19.9357-20c11.61564 0 19.93569 8.48649 19.93569 20zm-8.32005 0c0-7.56757-4.80833-12.48649-11.61564-12.48649-6.80731 0-11.61565 4.91892-11.61565 12.48649s4.80834 12.48649 11.61565 12.48649c6.8073 0 11.61564-4.91892 11.61564-12.48649zm60.37135-7.94595l-7.77978 27.13514h-8.32005L268.4189 558.8108h8.8603l7.13147 27.13514h.10805l7.67173-27.13514h8.53615l7.67173 27.13514h.10806l7.13146-27.13514h8.6442l-11.77772 38.37838h-8.32005l-7.77978-27.13514h-.10805zm60.10122-11.24324l13.88475 17.8919 13.93877-17.8919h3.56573v38.37838h-3.94391V565.5135l-13.45254 17.08109h-.2161l-13.39852-17.08109v31.67568h-3.94392V558.8108h3.56574zm68.9075 0v38.37838h-3.94392V558.8108h3.94391zm56.8056 34.64865v3.72973h-23.17726V558.8108h3.94392v34.64865h19.23335zm51.88923 0v3.72973h-23.17727V558.8108h3.94392v34.64865H534z"/><path fill="url(#a)" fill-rule="nonzero" d="M140.47222 289.53968c-5.78365 0-10.47222-4.69035-10.47222-10.47619 0-5.78584 4.68857-10.47619 10.47222-10.47619s10.47222 4.69035 10.47222 10.4762c0 5.78583-4.68857 10.47618-10.47222 10.47618zm356.05556 0c-5.78365 0-10.47222-4.69035-10.47222-10.47619 0-5.78584 4.68857-10.47619 10.47222-10.47619S507 273.27765 507 279.0635c0 5.78583-4.68857 10.47618-10.47222 10.47618zM212.46875 307c-15.18208 0-27.48958-12.31217-27.48958-27.5s12.3075-27.5 27.48958-27.5c15.18208 0 27.48958 12.31217 27.48958 27.5s-12.3075 27.5-27.48958 27.5zm212.0625 0c-15.18208 0-27.48958-12.31217-27.48958-27.5s12.3075-27.5 27.48958-27.5c15.18208 0 27.48958 12.31217 27.48958 27.5s-12.3075 27.5-27.48958 27.5zM220.77677 130.289c-2.89182-5.00878-1.16727-11.41835 3.8519-14.31616 5.01916-2.89782 11.4323-1.18655 14.32412 3.82224 2.89182 5.00879 1.16727 11.41836-3.8519 14.31618-5.01917 2.89781-11.4323 1.18654-14.32412-3.82225zm178.02778 308.35316c-2.89183-5.00878-1.16727-11.41835 3.8519-14.31617 5.01916-2.89782 11.43229-1.18654 14.32411 3.82225 2.89183 5.00878 1.16727 11.41835-3.8519 14.31617-5.01916 2.89782-11.43229 1.18654-14.32411-3.82225zm-157.1762-237.25739c-7.59103-13.14807-3.06408-29.97318 10.11123-37.57996 13.17532-7.60677 30.00978-3.11466 37.60082 10.0334 7.59103 13.14807 3.06408 29.97319-10.11123 37.57996-13.17532 7.60677-30.00978 3.11467-37.60082-10.0334zM347.6596 385.03628c-7.59103-13.14806-3.06408-29.97318 10.11123-37.57995 13.17532-7.60678 30.00978-3.11467 37.60082 10.0334 7.59103 13.14806 3.06408 29.97318-10.11123 37.57995-13.17532 7.60677-30.00978 3.11467-37.60082-10.0334zm51.14495-264.80395c2.89182-5.00879 9.30495-6.72007 14.32412-3.82225 5.01916 2.89782 6.74372 9.30739 3.8519 14.31618-2.89183 5.00878-9.30496 6.72006-14.32412 3.82224-5.01917-2.89781-6.74373-9.30738-3.8519-14.31617zM220.77677 428.58549c2.89183-5.0088 9.30495-6.72007 14.32412-3.82225 5.01917 2.89782 6.74372 9.30739 3.8519 14.31617-2.89183 5.00879-9.30496 6.72007-14.32412 3.82225-5.01917-2.89782-6.74372-9.30739-3.8519-14.31617zM347.65961 173.8382c7.59103-13.14806 24.4255-17.64017 37.6008-10.0334 13.17532 7.60678 17.70227 24.4319 10.11124 37.57996-7.59104 13.14807-24.4255 17.64017-37.60082 10.0334-13.17531-7.60677-17.70226-24.4319-10.11122-37.57996zM241.62835 357.48972c7.59103-13.14806 24.4255-17.64017 37.6008-10.0334 13.17532 7.60678 17.70227 24.4319 10.11124 37.57996-7.59104 13.14807-24.4255 17.64017-37.60082 10.0334-13.17531-7.60677-17.70226-24.4319-10.11122-37.57996zM147 197c-9.38884 0-17-7.61116-17-17s7.61116-17 17-17 17 7.61116 17 17-7.61116 17-17 17zm343 0c-9.38884 0-17-7.61116-17-17s7.61116-17 17-17 17 7.61116 17 17-7.61116 17-17 17zm0 198c-9.38884 0-17-7.61116-17-17s7.61116-17 17-17 17 7.61116 17 17-7.61116 17-17 17zm-343 0c-9.38884 0-17-7.61116-17-17s7.61116-17 17-17 17 7.61116 17 17-7.61116 17-17 17zm172 100c-9.38884 0-17-7.61116-17-17s7.61116-17 17-17 17 7.61116 17 17-7.61116 17-17 17zm0-398c-9.38884 0-17-7.61116-17-17s7.61116-17 17-17 17 7.61116 17 17-7.61116 17-17 17zm-.5 226c-24.57667 0-44.5-19.92333-44.5-44.5s19.92333-44.5 44.5-44.5 44.5 19.92333 44.5 44.5-19.92333 44.5-44.5 44.5z"/></g></svg>
